X:1
T:In dubbio di mio stato
T:Girolamo Scotto
T:Source : Madrigali a tre voci---Venetia---G.Scotto---1541. Editor : André Vierendeels (16/07/16).
T:Notes : Original clefs : C2, C4, F4 Original note values have been halved "Quinti toni" 
T:In dubbio di mio stato
T:©
T:©
T:©
T:©
T:©
C:Girolamo Scotto
Z:©
%%score [ 1 2 3 ]
L:1/8
Q:1/4=115
M:2/2
K:F
V:1 treble nm="Alto" snm="A"
V:2 treble-8 nm="Tenor" snm="T"
V:3 bass nm="Bass" snm="B"
V:1
 C4 D2 D2 | E2 E2 F3 E | D4 C2 F2- | F2 ED E4 | F4 E2 G2 | A2 A2 F4 | E6 G2 | G2 G3 F F2- | %8
w: In dub- bio|di mio sta- *|||to hor pian-|go, hor can-|to, hor|pian- go, hor can-|
 F2 E2 F4 | z4 z2 A2 | B2 A4 G2 | A2 A2 A3 A | G2 A4 GF | E2 G4 F2 | G4 z2 G2 | G2 G2 F2 E2 | %16
w: * * to,|et|te- mo'e spe-|* ro, e'in so-|spi- ri'e'n _ _|_ ri- *|mi, sfo-|go'l mio in- car-|
 DEFG A2 F2 | B8 | A2 F2 F2 F2 | D2 E2 F2 F2 | z2 C2 C2 C2 | F2 E2 D2 F2- | F2 E2 F2 F2 | F4 F4 | %24
w: co: _ _ _ _ _|A|mor, a- mor tut-|te sue li- me,|u- sa so-|pra'l mio _ cor|_ af- flit- to|tan- to,|
 z8 | z8 | z2 D2 E4 | F2 F2 D3 E | F2 G2 A2 A2- | A2 G2 A2 F2 | E2 E2 F2 F2 | F4 D3 E | %32
w: ||hor fia|mai, che quel _|_ bel vi- so|_ san- to, ren-|d'a que- sti'oc- chi|le lor _|
 FG A3 G G2- | G2 F2 G2 D2 | F4 E4 | z2 D2 A2 A2 | D2 D2 F2 F2 | E2 A3 G/F/ G2 | A2 A2 F2 E2 | %39
w: _ _ _ _ _|* lu- ci pri-|* me,|o' li con-|dan- ni'à sem- pi-|ter- no _ _ pian-|to, à sem- pi-|
 E2 F2 D4 | C8- | C4 E4 | F2 F2 D2 D2 | D3 D F2 F2 | E4 D2 G2 | F2 E2 F2 G2- | GF F4 E2 | F8- | %48
w: ter- no pian-|to,|_ o'|li con- dan- ni'à|sem- pi ter- no|pian- to, à|sem- pi- ter- no-|* * pian- *|to.|
 F8- | F8 |] %50
w: _||
V:2
 z8 | z4 F4 | G2 G2 A2 A2 | B4 G2 c2 | B2 A2 G2 c2- | c2 A3 GAB | c2 G2 G2 G2 | c3 B A2 B2 | %8
w: |In|dub- bio di mio|sta- to, in|dub- bio di mio|_ sta- * * *|to, hor pian- go,|hor _ _ can-|
 G4 F2 A2 | G4 F4- | F4 B4 | A2 d2 c3 c | c2 c4 B2 | c2 B2 A4 | G3 F E2 D2 | E2 G2 A2 A2 | B4 A4 | %17
w: * to, et|te- mo'e|_ spe-|ro, et in so-|spi- ri'e'n ri-|||me, sfo- go'l mio'in-|car- co:|
 z2 d2 d2 d2 | d3 c B2 A2 | B6 A2 | G4 z2 A2 | A2 A2 B3 A | G2 G2 F2 A2 | A2 A2 D3 E | FG F4 E2 | %25
w: A- mor tut-|te _ _ sue|li- *|me, u-|sa so- pra'l _|_ mio cor af-|flit- to tan- *||
 FGAB cd c2- | c2 B2 c2 G2 | A4 B2 B2 | A2 c2 c2 d2 | B4 A3 B | c4 z2 A2 | A2 A2 B2 B2 | %32
w: |* * to, hor|fia mai, che|quel bel vi- so|san- * *|to, rend'|a que- sti'oc- chi|
 A2 c2 c2 c2 | A4 B3 A | Bc d4 c2 | B2 A2 z2 A2 | B2 B2 A2 A2 | c2 c2 B2 B2 | A3 G AB c2- | %39
w: le lor lu- ci|pri- * *||* me, o'|li con- dan- ni'à|sem- pi- ter- no|pian- * * * *|
 cB A4 G2 | A4 G4 | z2 F2 c2 c2 | c3 c B2 F2 | B2 B2 A3 B | c2 A4 G2 | A2 A2 A2 B2 | B3 A G4 | %47
w: |* to,|o' li con-|dan- ni'à sem- pi-|ter- no pian- *|* to, à|sem- pi- ter- no|pian- * *|
 F8- | F8- | F8 |] %50
w: to.|_||
V:3
 z8 | z8 | z8 | z4 C,4 | D,2 D,2 E,2 E,2 | F,3 E, D,4 | C,8- | C,4 z2 B,,2 | C,2 C,2 F,,2 F,2- | %9
w: |||In|dub- bio di mio|sta- * *|to,|_ hor|pian- go, hor can-|
 F,E,/D,/ E,2 F,2 D,2 | D,2 D,2 G,4 | F,2 D,2 F,3 F, | E,2 F,2 D,4 | C,2 G,,2 D,3 D, | %14
w: * * * * to, et|te- mo'e spe-|ro, et in so-|spi- ri'e'n ri-|* me, e'in so-|
 G,,2 C,4 =B,,2 | C,4 z4 | z2 D,2 D,2 D,2 | G,,4 G,4 | z2 D,2 D,2 D,2 | G,2 G,2 D,2 F,2- | %20
w: spi- rie'n ri-|me,|sfo- go'l mio'in-|car- co:|A- mor tut-|te sue li- *|
 F,2 E,2 F,3 E, | D,2 C,2 B,,2 B,,2 | C,4 F,,4- | F,,2 F,,2 B,,4- | B,,2 A,,2 G,,4 | %25
w: * * me, u-|sa so- pra'l mio|_ cor|_ af- flit-|* to tan-|
 F,,2 F,2 F,2 E,2 | D,4 C,4 | F,,4 G,,2 D,2- | D,2 E,2 F,2 D,2 | G,2 G,2 D,4 | A,,2 A,2 F,2 F,2 | %31
w: to, af- flit- to|tan- to,|hor fia mai,|_ che quel bel|vi- so san-|to, rend' a que-|
 D,2 D,2 B,,4 | F,,4 C,2 C,2 | D,4 G,,4 | z2 D,2 A,2 A,2 | D,2 D,2 F,2 F,2 | G,2 G,2 D,4 | %37
w: sti'oc- chi le|lor lu- ci|pri- me,|o' li con-|dan- ni'à sem- pi-|ter- no pian-|
 C,2 F,2 G,2 G,2 | D,6 A,,2 | C,2 D,2 B,,4 | A,,2 F,3 E,/D,/ E,2 | F,4 z2 C,2 | %42
w: to, à sem- pi-|ter- no|pian- * *||to, o'|
 F,,2 F,,2 B,,2 B,,2 | G,,2 G,,2 D,2 D,2 | A,,4 B,,4 | A,,2 A,,2 D,2 G,,2 | B,,2 B,,2 C,4 | %47
w: li con- dan- ni'à|sem- pi- ter- no|pian- *|to, à sem- pi-|ter- no pian-|
 F,,2 B,,4 A,,2 | B,,8 | F,,8 |] %50
w: |to.|_|

